app/assets/afsluitingsschot-verbreed-kolkdeel.svg

<svg data-name="Layer 1" xmlns="http://www.w3.org/2000/svg" width="72" height="484.5" viewBox="0 0 72 484.5">
    <title>
        afsluitingsschot-verbreed-kolkdeel
    </title>
    <path d="M24 108v12H0v240h24v11h24v-11h24V120H48v-12z" fill="#d9ebf7"/>
    <path d="M12 120H0m72 0H60M60 360h12" fill="none" stroke="#9fceea" stroke-miterlimit="10" stroke-width="3"/>
    <path d="M12 360h12v12h24v-12h12" fill="none" stroke="#7d7d7d" stroke-miterlimit="10" stroke-width="3"/>
    <path d="M0 360h12" fill="none" stroke="#9fceea" stroke-miterlimit="10" stroke-width="3"/>
    <path d="M12 120h12v-12h24v12h12" fill="none" stroke="#7d7d7d" stroke-miterlimit="10" stroke-width="3"/>
    <path d="M35.9 383.7a9.7 9.7 0 0 0-9.7 9.8v3.3H25v16h22v-16h-1.3v-3.3a9.7 9.7 0 0 0-9.6-9.8zm0 2.4h.2a7.3 7.3 0 0 1 7.2 7.4v3.3H28.6v-3.3a7.3 7.3 0 0 1 7.3-7.4zM28 307.6h16v-16H28zm0 29.8h16v-16H28zm0 29.8h16v-16H28zm0-238.5h15.9v-16H28.1zm0 29.8h16v-16H28zm0 29.8h16v-16H28zm0 29.8h16v-16H28zm0 29.8h16v-16H28zm0 29.9h16v-16H28z" fill="#ca005d"/>
    <g style="isolation:isolate" fill="#ca005d">
        <path d="M6.9 472v-18.7h3.9v7.1h7.3v-7.1H22V472h-3.9v-8.4h-7.3v8.4zM28.3 453.3l2.4 10.7.6 3 .5-2.9 2.1-10.8H38l2.3 10.7.5 3 .6-2.9 2.5-10.8h4L42.6 472h-3.7l-2.3-10.9-.6-3.7-.7 3.7L33 472h-3.6l-5.3-18.7zM50.3 453.3h3.9v7.7l7.2-7.7h5l-7.6 7.7 8 11h-5l-5.8-8.2-1.8 1.9v6.3h-3.9z"/>
    </g>
</svg>

<svg id="84a7dea5-fc27-46e5-87e4-9fbceede76f0" data-name="Layer 1" xmlns="http://www.w3.org/2000/svg" width="72" height="484.5" viewBox="0 0 72 484.5">
  <title>afsluitingsschot-verbreed-kolkdeel</title>
  <path d="M24,108v12H0V360H24v11H48V360H72V120H48V108Z" fill="#d9ebf7"/>
  <path d="M12,120H0m72,0H60" fill="none" stroke="#9fceea" stroke-miterlimit="10" stroke-width="3"/>
  <path d="M60,360H72" fill="none" stroke="#9fceea" stroke-miterlimit="10" stroke-width="3"/>
  <path d="M12,360H24v12H48V360H60" fill="none" stroke="#7d7d7d" stroke-miterlimit="10" stroke-width="3"/>
  <path d="M0,360H12" fill="none" stroke="#9fceea" stroke-miterlimit="10" stroke-width="3"/>
  <path d="M12,120H24V108H48v12H60" fill="none" stroke="#7d7d7d" stroke-miterlimit="10" stroke-width="3"/>
  <path d="M35.9,383.7a9.7,9.7,0,0,0-9.7,9.8v3.3H25v16H47v-16H45.7v-3.3a9.7,9.7,0,0,0-9.6-9.8Zm0,2.4h.2a7.3,7.3,0,0,1,7.2,7.4v3.3H28.6v-3.3A7.3,7.3,0,0,1,35.9,386.1Z" fill="#ca005d"/>
  <path d="M28,307.6H44v-16H28Zm0,29.8H44v-16H28Zm0,29.8H44v-16H28Zm0-238.5H43.9v-16H28.1Zm0,29.8H44v-16H28Zm0,29.8H44v-16H28Zm0,29.8H44v-16H28Zm0,29.8H44v-16H28Zm0,29.9H44v-16H28Z" fill="#ca005d"/>
</svg>
